public/svgs/select.svg

<svg width="26" height="22" viewBox="0 0 26 22" fill="none" xmlns="http://www.w3.org/2000/svg">
<path d="M12.8617 16.1167C13.4014 17.057 14.0605 17.9061 14.6654 18.7959C15.015 19.31 15.3441 19.8438 15.7133 20.3384C16.241 21.0457 16.9906 21.3235 17.7219 21.5867C18.7641 21.9615 19.8337 22.096 20.9314 21.9297C21.8894 21.7847 22.8614 21.7513 23.8152 21.5802C24.5283 21.4523 25.2224 21.185 26 20.9576C25.2111 20.8346 24.5114 20.7645 23.8257 20.6105C22.4958 20.3115 21.2921 19.7085 20.3264 18.5498C19.9734 18.1261 19.5691 17.7594 19.1817 17.3756C18.8301 17.0269 18.4687 16.6895 18.1121 16.3473C18.1213 16.3253 18.1311 16.3033 18.1402 16.2813C18.5248 16.4329 18.9101 16.5836 19.2947 16.7352C17.7851 14.9295 16.5176 12.9413 15.1778 10.9824C16.5653 9.0594 17.9339 7.16164 19.2919 5.27856C18.9284 5.41056 18.5255 5.55723 18.0798 5.71938C18.1479 5.62568 18.1844 5.5613 18.2314 5.51241C18.8203 4.9078 19.4042 4.29831 20.0022 3.70592C20.4324 3.27895 20.8647 2.85034 21.3251 2.46981C22.0789 1.84728 22.973 1.62564 23.8566 1.41704C24.5248 1.25897 25.2076 1.18807 25.9389 1.06992C25.4203 0.903696 24.9423 0.696727 24.4483 0.603836C23.3948 0.405831 22.3329 0.266494 21.2739 0.102712C20.1966 -0.063515 19.1221 -0.0431438 18.07 0.276272C17.2257 0.532946 16.3814 0.828731 15.7652 1.62238C15.5813 1.8595 15.4227 2.12351 15.2529 2.37529C14.5089 3.47858 13.7741 4.59083 13.0175 5.68271C12.6589 6.19932 12.3255 6.79578 11.8623 7.14616C11.1289 7.70188 10.298 8.08567 9.50489 8.53464C9.30416 8.6479 9.0901 8.72939 8.88236 8.82554C9.13081 8.42627 9.41365 8.10522 9.66841 7.75566C10.3134 6.87238 10.9254 5.95568 11.5914 5.09522C11.948 4.63402 12.4063 4.28038 12.788 3.842C13.1067 3.47532 13.3839 3.05975 13.6738 2.65967C13.9671 2.25551 14.2528 1.8432 14.5742 1.38934C13.0232 2.47796 11.5212 3.53236 9.9716 4.62017C9.9716 4.11089 9.9716 3.67414 9.9716 3.23657C9.88317 3.33598 9.84036 3.43051 9.8165 3.53073C9.51471 4.81247 8.91816 5.88235 8.02613 6.70045C6.81056 7.81596 5.49393 8.75383 4.09799 9.53852C2.9919 10.1602 1.87389 10.738 0.626031 10.8586C0.415483 10.8789 0.208444 10.9449 -4.80377e-07 10.9897C1.43454 11.1299 2.75047 11.6677 3.97868 12.4459C5.24337 13.246 6.48561 14.1073 7.67802 15.0427C8.7062 15.8494 9.37856 17.0244 9.76597 18.4031C9.81509 18.5775 9.84668 18.7576 9.88668 18.9352C9.92739 18.9287 9.96809 18.923 10.0088 18.9165C9.98915 18.4097 9.9702 17.9028 9.94985 17.3862C11.463 18.4447 13.0042 19.5227 14.5454 20.6016C13.9847 19.7737 13.4232 18.9727 12.8161 18.2206C12.428 17.7407 11.9395 17.3699 11.5549 16.8859C10.9696 16.1485 10.4383 15.3524 9.87826 14.5864C9.54489 14.1309 9.20099 13.6869 8.79323 13.1466C9.31609 13.4465 9.75754 13.6828 10.1857 13.9492C11.1486 14.5514 12.202 14.967 12.8617 16.1167Z" fill="white"/>
</svg>

<svg xmlns="http://www.w3.org/2000/svg" width="26" height="22" fill="none" viewBox="0 0 26 22"><path fill="#fff" d="M12.862 16.117c.54.94 1.198 1.79 1.803 2.679.35.514.68 1.048 1.048 1.542.528.708 1.278.985 2.009 1.249 1.042.375 2.112.509 3.21.343.957-.145 1.93-.179 2.883-.35.713-.128 1.407-.395 2.185-.622-.789-.123-1.489-.193-2.174-.348-1.33-.299-2.534-.901-3.5-2.06-.353-.424-.757-.79-1.144-1.174-.352-.35-.713-.687-1.07-1.029q.016-.033.028-.066l1.155.454c-1.51-1.805-2.777-3.794-4.117-5.753l4.114-5.703-1.212.44c.068-.093.104-.158.151-.207.59-.604 1.173-1.214 1.771-1.806.43-.427.863-.856 1.323-1.236.754-.623 1.648-.844 2.532-1.053.668-.158 1.35-.229 2.082-.347-.519-.166-.997-.373-1.49-.466-1.054-.198-2.116-.338-3.175-.501-1.077-.167-2.152-.146-3.204.173-.844.257-1.689.553-2.305 1.346-.184.237-.342.502-.512.753-.744 1.104-1.479 2.216-2.235 3.308-.36.516-.693 1.113-1.156 1.463-.733.556-1.564.94-2.357 1.389-.2.113-.415.194-.623.29.249-.399.532-.72.786-1.07.645-.883 1.257-1.8 1.923-2.66.357-.461.815-.815 1.197-1.253.319-.367.596-.782.886-1.182.293-.404.579-.817.9-1.27L9.972 4.62V3.237a.65.65 0 0 0-.155.294c-.302 1.281-.899 2.351-1.79 3.17a21 21 0 0 1-3.929 2.838c-1.106.621-2.224 1.199-3.472 1.32-.21.02-.418.086-.626.13 1.435.14 2.75.679 3.979 1.457 1.264.8 2.507 1.661 3.699 2.597 1.028.806 1.7 1.981 2.088 3.36.05.175.08.355.12.532l.123-.018-.06-1.53 4.596 3.215c-.56-.828-1.122-1.63-1.729-2.381-.388-.48-.876-.851-1.261-1.335-.585-.738-1.117-1.534-1.677-2.3-.333-.455-.677-.9-1.085-1.44.523.3.965.537 1.393.803.963.602 2.016 1.018 2.676 2.168"/></svg>
